X: 21441
M: C|
L: 1/8
K: D
d2d>d e2e>e | a3f d>dd>c | B2g>g g>ge>c | d4 d>dd>e |\
f2f>f f2{ef}g>f | f>ee2 z>ee>f | g2g>g g2{fg}a>g | g2f2 z>aa>a |
a2fd a2fd | A4 A>AA>A | e2e>e {ef}g2e>c | e>dd2 z>d=c>c |\
=f7/e/ dfed | dc c4 za | a4 a>e=f>d | e(3A/A/A/ AA A2za |\
a4 a>e=f>d | e(3A/A/A/ AA A2A2 | d6 d2 | f6 f2 |
g4 a2b2 | e4 z2b2 | a4- a>(fg)>e | d4 z2A2 |\
d6 d2 | f6 f2 | f2Tgf/g/ a2b2 | e4 z2b2 |\
a4 a>fg>e | d4 z2 |]

